icons/buckle.svg

<svg
  xmlns="http://www.w3.org/2000/svg"
  width="24"
  height="24"
  viewBox="0 0 24 24"
  fill="none"
  stroke="currentColor"
  stroke-width="2"
  stroke-linecap="round"
  stroke-linejoin="round"
>
  <path d="M2 8H10C10.552 8 11 8.448 11 9V15C11 15.552 10.552 16 10 16H2" />
  <path d="M7 8V6C7 4.895 7.895 4 9 4H14C15.105 4 16 4.895 16 6V18C16 19.105 15.105 20 14 20H9C7.895 20 7 19.105 7 18V16" />
  <path d="M4 12V12.0001" />
  <path d="M20 12V12.0001" />
  <path d="M8 12H12" />
  <path d="M16 8H22" />
  <path d="M16 16H22" />
</svg>

<svg
  xmlns="http://www.w3.org/2000/svg"
  width="24"
  height="24"
  viewBox="0 0 24 24"
  fill="none"
  stroke="currentColor"
  stroke-width="2"
  stroke-linecap="round"
  stroke-linejoin="round"
>
  <path d="M16 16h6" />
  <path d="M16 8h6" />
  <path d="M2 8h8a1 1 0 011 1v6a1 1 0 01-1 1H2" />
  <path d="M20 12h.01" />
  <path d="M4 12h.01" />
  <path d="M7 8V6a2 2 0 012-2h5a2 2 0 012 2v12a2 2 0 01-2 2H9a2 2 0 01-2-2v-2" />
  <path d="M8 12h4" />
</svg>
